dist/img/team/icon-2.svg

<svg width="110" height="110" viewBox="0 0 110 110" fill="none" xmlns="http://www.w3.org/2000/svg">
<g filter="url(#filter0_d)">
<rect x="20" y="14.999" width="70" height="70" fill="#E3B873"/>
</g>
<path d="M62.6292 30.9234L62.4547 31.892C65.4466 33.0061 68.1541 34.831 70.3396 37.2465C73.6824 40.9421 75.5234 45.7233 75.5234 50.7108C75.5234 50.7908 75.4589 50.8553 75.3789 50.8553C75.299 50.8553 75.2343 50.7906 75.2343 50.7108C75.2343 40.8154 68.0045 32.5232 58.2983 31.1286L57.7272 31.0465V31.6235V32.9146C57.7272 32.9946 57.6627 33.0591 57.5827 33.0591H53.3116C53.2318 33.0591 53.1671 32.9945 53.1671 32.9146V31.6235V31.0465L52.596 31.1286C42.8898 32.5232 35.6597 40.8154 35.6597 50.7108C35.6597 50.7906 35.595 50.8553 35.5151 50.8553C35.4353 50.8553 35.3706 50.7906 35.3706 50.7108C35.3706 45.7233 37.2116 40.9421 40.5548 37.2465C42.7399 34.831 45.4474 33.0065 48.4393 31.8923L48.2648 30.9238H40.3273H39.9655L39.8524 31.2675C39.646 31.8947 39.0549 32.3471 38.3625 32.3471C37.4982 32.3471 36.7943 31.6434 36.7943 30.7792C36.7943 29.915 37.4983 29.211 38.3625 29.211C39.0549 29.211 39.646 29.6635 39.8523 30.2909L39.9654 30.6347H40.3273H52.6671H53.1671V30.1347V28.6436C53.1671 28.5637 53.2318 28.499 53.3116 28.499H57.5827C57.6627 28.499 57.7272 28.5635 57.7272 28.6436V30.1344V30.6344H58.2272H70.567H70.9289L71.042 30.2906C71.2483 29.6634 71.8394 29.211 72.5315 29.211C73.3958 29.211 74.0997 29.9148 74.0997 30.7789C74.0997 31.6432 73.396 32.3471 72.5315 32.3471C71.8391 32.3471 71.248 31.8947 71.0417 31.2672L70.9286 30.9234H70.5667H62.6292ZM53.4562 32.2701V32.7701H53.9562H56.9382H57.4382V32.2701V30.891V30.8887V30.7806V30.7789V30.7772V29.2881V28.7881H56.9382H53.9562H53.4562V29.2881V30.8897V30.89V32.2701ZM73.8106 30.7789C73.8106 30.0733 73.2372 29.5001 72.5315 29.5001C71.8258 29.5001 71.2524 30.0733 71.2524 30.7789C71.2524 31.4847 71.8257 32.0581 72.5315 32.0581C73.2373 32.0581 73.8106 31.4847 73.8106 30.7789ZM37.0834 30.7792C37.0834 31.4849 37.6568 32.0581 38.3625 32.0581C39.0682 32.0581 39.6416 31.4849 39.6416 30.7792C39.6416 30.0734 39.0683 29.5001 38.3625 29.5001C37.6567 29.5001 37.0834 30.0734 37.0834 30.7792Z" fill="white" stroke="white" stroke-width="0.999998"/>
<mask id="path-3-inside-1" fill="white">
<path d="M57.4336 35.4478C57.3198 35.2437 57.1047 35.1172 56.871 35.1172H54.0233C53.79 35.1172 53.5745 35.2437 53.4607 35.4478L44.9183 50.7525C44.8649 50.8485 44.8367 50.9566 44.8367 51.0667V51.7787C44.8367 51.9006 44.8713 52.0197 44.9364 52.1228L48.5831 57.8964H46.1929C45.8371 57.8964 45.5484 58.1848 45.5484 58.5409C45.5484 58.8968 45.8371 59.1855 46.1929 59.1855H46.2604V61.3883C46.2604 61.7445 46.5487 62.0328 46.9049 62.0328H47.6837V64.236C47.6837 64.5918 47.9724 64.8805 48.3283 64.8805H49.1077V67.081V67.0834V67.086V71.3544C49.1077 71.7106 49.3964 71.9989 49.7523 71.9989H61.142C61.4979 71.9989 61.7866 71.7106 61.7866 71.3544V64.8805H62.5657C62.9216 64.8805 63.2103 64.5918 63.2103 64.236V62.0328H63.9894C64.3452 62.0328 64.6339 61.7445 64.6339 61.3883V59.1855H64.7014C65.0573 59.1855 65.346 58.8968 65.346 58.5409C65.346 58.1848 65.0573 57.8964 64.7014 57.8964H63.9911C63.9904 57.8964 63.9901 57.8964 63.9894 57.8964C63.9887 57.8964 63.9884 57.8964 63.9877 57.8964H62.3113L65.9579 52.1228C66.023 52.0197 66.0576 51.9006 66.0576 51.7787V51.0667C66.0576 50.9566 66.0294 50.8485 65.9757 50.7525L57.4336 35.4478ZM55.4473 49.2197C55.877 49.2197 56.2265 49.5692 56.2265 49.9989C56.2265 50.4285 55.877 50.778 55.4473 50.778C55.0176 50.778 54.6682 50.4285 54.6682 49.9989C54.6682 49.5692 55.0176 49.2197 55.4473 49.2197ZM61.9212 63.5911H54.8495C54.4936 63.5911 54.2049 63.8798 54.2049 64.2357C54.2049 64.5918 54.4936 64.8802 54.8495 64.8802H60.4975V66.4385H59.718C59.3622 66.4385 59.0735 66.7269 59.0735 67.083C59.0735 67.4392 59.3622 67.7276 59.718 67.7276H60.4972V70.7099H50.3968V67.7279H51.176C51.5318 67.7279 51.8205 67.4395 51.8205 67.0834C51.8205 66.7272 51.5318 66.4388 51.176 66.4388H50.3968V64.8802H52.0954C52.4516 64.8802 52.74 64.5918 52.74 64.2357C52.74 63.8798 52.4516 63.5911 52.0954 63.5911H48.9728V62.0328H61.9212V63.5911ZM63.3449 60.7438H47.5494V59.1855H61.14H61.1414H61.1427H63.3449V60.7438ZM64.7686 51.5921L63.4842 53.6254H61.8537C61.4979 53.6254 61.2092 53.9137 61.2092 54.2699C61.2092 54.6261 61.4979 54.9144 61.8537 54.9144H62.6701L60.7865 57.8964H56.0915V56.4053C56.0915 56.0494 55.8032 55.7607 55.447 55.7607C55.0912 55.7607 54.8025 56.0494 54.8025 56.4053V57.8964H50.1074L48.2242 54.9144H49.0403C49.3964 54.9144 49.6848 54.6261 49.6848 54.2699C49.6848 53.9137 49.3964 53.6254 49.0403 53.6254H47.4098L46.1258 51.5921V51.2342L54.402 36.4063H54.8025V48.034C53.977 48.3056 53.3788 49.0834 53.3788 49.9985C53.3788 51.1392 54.3066 52.0671 55.447 52.0671C56.5877 52.0671 57.5155 51.1392 57.5155 49.9985C57.5155 49.0834 56.9173 48.3053 56.0919 48.034V36.4063H56.4923L64.7686 51.2342V51.5921Z"/>
</mask>
<path d="M57.4336 35.4478C57.3198 35.2437 57.1047 35.1172 56.871 35.1172H54.0233C53.79 35.1172 53.5745 35.2437 53.4607 35.4478L44.9183 50.7525C44.8649 50.8485 44.8367 50.9566 44.8367 51.0667V51.7787C44.8367 51.9006 44.8713 52.0197 44.9364 52.1228L48.5831 57.8964H46.1929C45.8371 57.8964 45.5484 58.1848 45.5484 58.5409C45.5484 58.8968 45.8371 59.1855 46.1929 59.1855H46.2604V61.3883C46.2604 61.7445 46.5487 62.0328 46.9049 62.0328H47.6837V64.236C47.6837 64.5918 47.9724 64.8805 48.3283 64.8805H49.1077V67.081V67.0834V67.086V71.3544C49.1077 71.7106 49.3964 71.9989 49.7523 71.9989H61.142C61.4979 71.9989 61.7866 71.7106 61.7866 71.3544V64.8805H62.5657C62.9216 64.8805 63.2103 64.5918 63.2103 64.236V62.0328H63.9894C64.3452 62.0328 64.6339 61.7445 64.6339 61.3883V59.1855H64.7014C65.0573 59.1855 65.346 58.8968 65.346 58.5409C65.346 58.1848 65.0573 57.8964 64.7014 57.8964H63.9911C63.9904 57.8964 63.9901 57.8964 63.9894 57.8964C63.9887 57.8964 63.9884 57.8964 63.9877 57.8964H62.3113L65.9579 52.1228C66.023 52.0197 66.0576 51.9006 66.0576 51.7787V51.0667C66.0576 50.9566 66.0294 50.8485 65.9757 50.7525L57.4336 35.4478ZM55.4473 49.2197C55.877 49.2197 56.2265 49.5692 56.2265 49.9989C56.2265 50.4285 55.877 50.778 55.4473 50.778C55.0176 50.778 54.6682 50.4285 54.6682 49.9989C54.6682 49.5692 55.0176 49.2197 55.4473 49.2197ZM61.9212 63.5911H54.8495C54.4936 63.5911 54.2049 63.8798 54.2049 64.2357C54.2049 64.5918 54.4936 64.8802 54.8495 64.8802H60.4975V66.4385H59.718C59.3622 66.4385 59.0735 66.7269 59.0735 67.083C59.0735 67.4392 59.3622 67.7276 59.718 67.7276H60.4972V70.7099H50.3968V67.7279H51.176C51.5318 67.7279 51.8205 67.4395 51.8205 67.0834C51.8205 66.7272 51.5318 66.4388 51.176 66.4388H50.3968V64.8802H52.0954C52.4516 64.8802 52.74 64.5918 52.74 64.2357C52.74 63.8798 52.4516 63.5911 52.0954 63.5911H48.9728V62.0328H61.9212V63.5911ZM63.3449 60.7438H47.5494V59.1855H61.14H61.1414H61.1427H63.3449V60.7438ZM64.7686 51.5921L63.4842 53.6254H61.8537C61.4979 53.6254 61.2092 53.9137 61.2092 54.2699C61.2092 54.6261 61.4979 54.9144 61.8537 54.9144H62.6701L60.7865 57.8964H56.0915V56.4053C56.0915 56.0494 55.8032 55.7607 55.447 55.7607C55.0912 55.7607 54.8025 56.0494 54.8025 56.4053V57.8964H50.1074L48.2242 54.9144H49.0403C49.3964 54.9144 49.6848 54.6261 49.6848 54.2699C49.6848 53.9137 49.3964 53.6254 49.0403 53.6254H47.4098L46.1258 51.5921V51.2342L54.402 36.4063H54.8025V48.034C53.977 48.3056 53.3788 49.0834 53.3788 49.9985C53.3788 51.1392 54.3066 52.0671 55.447 52.0671C56.5877 52.0671 57.5155 51.1392 57.5155 49.9985C57.5155 49.0834 56.9173 48.3053 56.0919 48.034V36.4063H56.4923L64.7686 51.2342V51.5921Z" fill="white" stroke="white" stroke-width="2" mask="url(#path-3-inside-1)"/>
<defs>
<filter id="filter0_d" x="0" y="-0.000976562" width="110" height="110" filterUnits="userSpaceOnUse" color-interpolation-filters="sRGB">
<feFlood flood-opacity="0" result="BackgroundImageFix"/>
<feColorMatrix in="SourceAlpha" type="matrix" values="0 0 0 0 0 0 0 0 0 0 0 0 0 0 0 0 0 0 127 0"/>
<feOffset dy="5"/>
<feGaussianBlur stdDeviation="10"/>
<feColorMatrix type="matrix" values="0 0 0 0 0.890196 0 0 0 0 0.721569 0 0 0 0 0.45098 0 0 0 0.5 0"/>
<feBlend mode="normal" in2="BackgroundImageFix" result="effect1_dropShadow"/>
<feBlend mode="normal" in="SourceGraphic" in2="effect1_dropShadow" result="shape"/>
</filter>
</defs>
</svg>

<svg width="110" height="110" fill="none" xmlns="http://www.w3.org/2000/svg"><g filter="url(#filter0_d)"><path fill="#E3B873" d="M20 14.999h70v70H20z"/></g><path d="M62.63 30.923l-.175.969a20.082 20.082 0 017.885 5.354 20.033 20.033 0 015.183 13.465.144.144 0 11-.289 0c0-9.896-7.23-18.188-16.936-19.582l-.57-.082v1.868c0 .08-.065.144-.145.144h-4.271a.144.144 0 01-.145-.144v-1.868l-.571.082C42.89 32.523 35.66 40.815 35.66 50.71a.145.145 0 01-.29 0c0-4.988 1.842-9.769 5.185-13.465a20.078 20.078 0 017.884-5.354l-.174-.968h-8.299l-.114.343a1.571 1.571 0 01-1.49 1.08 1.57 1.57 0 01-1.568-1.568 1.57 1.57 0 011.569-1.568c.692 0 1.283.453 1.49 1.08l.112.344h13.202v-1.991c0-.08.065-.145.145-.145h4.27c.08 0 .145.065.145.145v1.99H70.93l.113-.343a1.571 1.571 0 011.49-1.08 1.57 1.57 0 011.568 1.568 1.57 1.57 0 01-1.569 1.568 1.571 1.571 0 01-1.49-1.08l-.112-.344h-8.301zm-9.174 1.347v.5h3.982v-3.982h-3.982v3.482zm20.355-1.491a1.28 1.28 0 10-2.56.002 1.28 1.28 0 002.56-.002zm-36.728 0a1.28 1.28 0 102.56-.002 1.28 1.28 0 00-2.56.002z" fill="#fff" stroke="#fff"/><mask id="path-3-inside-1" fill="#fff"><path d="M57.434 35.448a.644.644 0 00-.563-.33h-2.848a.644.644 0 00-.562.33l-8.543 15.304a.646.646 0 00-.081.315v.712c0 .122.034.24.1.344l3.646 5.773h-2.39a.644.644 0 100 1.29h.067v2.202c0 .357.289.645.645.645h.779v2.203c0 .356.288.644.644.644h.78v6.474c0 .357.288.645.644.645h11.39a.644.644 0 00.645-.645V64.88h.779a.645.645 0 00.644-.644v-2.203h.78a.644.644 0 00.644-.645v-2.203h.067a.645.645 0 000-1.289h-2.39l3.647-5.773a.644.644 0 00.1-.344v-.712a.643.643 0 00-.082-.315l-8.542-15.304zM55.447 49.22a.78.78 0 11-.001 1.56.78.78 0 01.001-1.56zm6.474 14.371H54.85a.645.645 0 000 1.29h5.649v1.558h-.78a.644.644 0 100 1.289h.78v2.982H50.396v-2.982h.779a.644.644 0 100-1.29h-.78V64.88h1.7a.644.644 0 100-1.289h-3.123v-1.558H61.92v1.558zm1.424-2.847H47.549v-1.559h15.796v1.559zm1.424-9.152l-1.285 2.033h-1.63a.644.644 0 100 1.29h.816l-1.884 2.981h-4.694v-1.49a.644.644 0 10-1.29 0v1.49h-4.695l-1.883-2.982h.816a.644.644 0 100-1.289h-1.63l-1.284-2.033v-.358l8.276-14.828h.4v11.628a2.072 2.072 0 00-1.423 1.965 2.07 2.07 0 002.068 2.068 2.07 2.07 0 002.069-2.069c0-.915-.599-1.693-1.424-1.964V36.406h.4l8.277 14.828v.358z"/></mask><path d="M57.434 35.448a.644.644 0 00-.563-.33h-2.848a.644.644 0 00-.562.33l-8.543 15.304a.646.646 0 00-.081.315v.712c0 .122.034.24.1.344l3.646 5.773h-2.39a.644.644 0 100 1.29h.067v2.202c0 .357.289.645.645.645h.779v2.203c0 .356.288.644.644.644h.78v6.474c0 .357.288.645.644.645h11.39a.644.644 0 00.645-.645V64.88h.779a.645.645 0 00.644-.644v-2.203h.78a.644.644 0 00.644-.645v-2.203h.067a.645.645 0 000-1.289h-2.39l3.647-5.773a.644.644 0 00.1-.344v-.712a.643.643 0 00-.082-.315l-8.542-15.304zM55.447 49.22a.78.78 0 11-.001 1.56.78.78 0 01.001-1.56zm6.474 14.371H54.85a.645.645 0 000 1.29h5.649v1.558h-.78a.644.644 0 100 1.289h.78v2.982H50.396v-2.982h.779a.644.644 0 100-1.29h-.78V64.88h1.7a.644.644 0 100-1.289h-3.123v-1.558H61.92v1.558zm1.424-2.847H47.549v-1.559h15.796v1.559zm1.424-9.152l-1.285 2.033h-1.63a.644.644 0 100 1.29h.816l-1.884 2.981h-4.694v-1.49a.644.644 0 10-1.29 0v1.49h-4.695l-1.883-2.982h.816a.644.644 0 100-1.289h-1.63l-1.284-2.033v-.358l8.276-14.828h.4v11.628a2.072 2.072 0 00-1.423 1.965 2.07 2.07 0 002.068 2.068 2.07 2.07 0 002.069-2.069c0-.915-.599-1.693-1.424-1.964V36.406h.4l8.277 14.828v.358z" fill="#fff" stroke="#fff" stroke-width="2" mask="url(#path-3-inside-1)"/><defs><filter id="filter0_d" x="0" y="-.001" width="110" height="110" filterUnits="userSpaceOnUse" color-interpolation-filters="sRGB"><feFlood flood-opacity="0" result="BackgroundImageFix"/><feColorMatrix in="SourceAlpha" values="0 0 0 0 0 0 0 0 0 0 0 0 0 0 0 0 0 0 127 0"/><feOffset dy="5"/><feGaussianBlur stdDeviation="10"/><feColorMatrix values="0 0 0 0 0.890196 0 0 0 0 0.721569 0 0 0 0 0.45098 0 0 0 0.5 0"/><feBlend in2="BackgroundImageFix" result="effect1_dropShadow"/><feBlend in="SourceGraphic" in2="effect1_dropShadow" result="shape"/></filter></defs></svg>
